X:1
T:Highland Fling
T:Highland Fling
T:Carl Volti
C:Carl Volti
L:1/8
Q:1/8=128
M:4/4
K:A
V:1 treble 
V:1
|: A>B A>F A<d d2 | B<d d2 A<d d2 | A>B A>F A<d d2 | g>e f>d e>d B<d | A>B A>F A<d d2 | %5
 B<d d2 A<d d2 | A>B A>F A<d d2 | g>e f>d e>d B<d | f<a a2 f<a a2 | a>b a>g f>e f>d | %10
 g<b b2 g<b b2 | g>a g>f e>d c>A | f<a a2 f<a a2 | a>b a>g f>e f>d | b>g a>f g>e f>d | %15
 e>c (3(ABc) d2 d2 :| %16

